img/smile.svg

<svg width="52" height="52" viewBox="0 0 52 52" fill="none" xmlns="http://www.w3.org/2000/svg">
<path d="M26.2825 0.0020752V51.9979C40.5119 51.8472 52 40.2649 52 26C52 11.735 40.5119 0.152739 26.2825 0.0020752Z" fill="#FFBB54"/>
<path d="M26.2825 0.00209256C26.1883 0.00104628 26.0942 0 26 0C11.6409 0 0 11.6409 0 26C0 40.3591 11.6409 52 26 52C26.0942 52 26.1883 51.999 26.2825 51.9979C38.1996 51.8179 47.8149 40.2472 47.8149 26C47.8149 11.7528 38.1996 0.182052 26.2825 0.00209256Z" fill="#FFD45A"/>
<path d="M36.3058 22.8821L26.1329 35.8821H36.5841C38.3764 33.5981 39.4447 30.7187 39.4447 27.5903V26.0209C39.4447 24.2946 38.0322 22.8821 36.3058 22.8821Z" fill="#B74147"/>
<path d="M15.6942 22.8821C13.9678 22.8821 12.5553 24.2946 12.5553 26.0209V27.5903C12.5553 30.7187 13.6236 33.5981 15.4159 35.8821L34.9865 34.1746C35.8266 32.2285 36.3058 29.9821 36.3058 27.5903V26.0212L15.6942 22.8821Z" fill="#FF3C1F"/>
<path d="M34.9865 34.1746L26.1329 41.034C30.3755 40.9932 34.1474 38.9874 36.5841 35.8821C36.1018 35.2679 35.5672 34.6956 34.9865 34.1746Z" fill="#FA4087"/>
<path d="M34.9865 34.1745C33.2413 38.2226 29.9351 40.9711 26.1329 41.0339C26.089 41.035 26.044 41.035 26 41.035C21.703 41.035 17.8778 39.0198 15.4159 35.882C17.8778 32.7453 21.703 30.7291 26 30.7291C29.4548 30.7291 32.6052 32.0328 34.9865 34.1745Z" fill="#FA71A3"/>
<path d="M33.167 22.8821L31.5976 27.5903H34.7364C35.5996 27.5903 36.3058 26.8841 36.3058 26.0209V22.8821H33.167Z" fill="#FFF7DF"/>
<path d="M33.167 22.8821V26.0209C33.167 26.8841 32.4608 27.5903 31.5976 27.5903H17.2636C16.4004 27.5903 15.6942 26.8841 15.6942 26.0209V22.8821H33.167Z" fill="white"/>
<path d="M26.7847 44.9589H25.2153C24.7818 44.9589 24.4306 44.6076 24.4306 44.1742C24.4306 43.7409 24.7818 43.3895 25.2153 43.3895H26.7847C27.2182 43.3895 27.5694 43.7409 27.5694 44.1742C27.5694 44.6076 27.2182 44.9589 26.7847 44.9589Z" fill="#FFBB54"/>
<path d="M34.7364 11.8961C33.8733 11.8961 33.167 12.6024 33.167 13.4655V18.1738C33.167 19.037 33.8733 19.7432 34.7364 19.7432C35.5996 19.7432 36.3059 19.037 36.3059 18.1738V13.4655C36.3059 12.6024 35.5996 11.8961 34.7364 11.8961Z" fill="#474867"/>
<path d="M17.2636 11.8971C16.4004 11.8971 15.6942 12.6033 15.6942 13.4665V18.1748C15.6942 19.0379 16.4004 19.7442 17.2636 19.7442C18.1267 19.7442 18.833 19.0379 18.833 18.1748V13.4665C18.833 12.6033 18.1267 11.8971 17.2636 11.8971Z" fill="#474867"/>
</svg>

<svg xmlns="http://www.w3.org/2000/svg" xmlns:xlink="http://www.w3.org/1999/xlink" width="52" height="52" fill="none" xmlns:v="https://vecta.io/nano"><path d="M26.283.002v51.996C40.512 51.847 52 40.265 52 26S40.512.153 26.283.002z" fill="#ffbb54"/><path d="M26.283.002L26 0C11.641 0 0 11.641 0 26s11.641 26 26 26l.282-.002C38.2 51.818 47.815 40.247 47.815 26S38.2.182 26.283.002z" fill="#ffd45a"/><path d="M36.306 22.882l-10.173 13h10.451c1.792-2.284 2.861-5.163 2.861-8.292v-1.569a3.15 3.15 0 0 0-3.139-3.139z" fill="#b74147"/><path d="M15.694 22.882a3.15 3.15 0 0 0-3.139 3.139v1.569c0 3.128 1.068 6.008 2.861 8.292l19.571-1.708c.84-1.946 1.319-4.192 1.319-6.584v-1.569l-20.612-3.139z" fill="#ff3c1f"/><path d="M34.987 34.175l-8.854 6.859a13.42 13.42 0 0 0 10.451-5.152c-.482-.614-1.017-1.187-1.598-1.708z" fill="#fa4087"/><path d="M34.987 34.175c-1.745 4.048-5.051 6.797-8.854 6.859-.044.001-.089.001-.133.001a13.42 13.42 0 0 1-10.584-5.153c2.462-3.137 6.287-5.153 10.584-5.153 3.455 0 6.605 1.304 8.987 3.445z" fill="#fa71a3"/><path d="M33.167 22.882l-1.569 4.708h3.139c.863 0 1.569-.706 1.569-1.569v-3.139h-3.139z" fill="#fff7df"/><path d="M33.167 22.882v3.139c0 .863-.706 1.569-1.569 1.569H17.264c-.863 0-1.569-.706-1.569-1.569v-3.139h17.473z" fill="#fff"/><path d="M26.785 44.959h-1.569c-.433 0-.785-.351-.785-.785s.351-.785.785-.785h1.569c.433 0 .785.351.785.785s-.351.785-.785.785z" fill="#ffbb54"/><g fill="#474867"><use xlink:href="#B"/><use xlink:href="#B" x="-17.472" y="0.001"/></g><defs ><path id="B" d="M34.736 11.896c-.863 0-1.569.706-1.569 1.569v4.708c0 .863.706 1.569 1.569 1.569s1.569-.706 1.569-1.569v-4.708c0-.863-.706-1.569-1.569-1.569z"/></defs></svg>
